// RomanoRender Uv Visualiser Shader

surface
uv
	[[ string help = "Lambertian Uv visualiser shader" ]]
(
	color col1 = color(0.75, 0.75, 0.25),
	color col2 = color(0.25, 0.25, 0.75),
)
{
	color col = floor(sin(P.x * 10.0)) > -1 ? col1 : col2;
	Ci = col * diffuse(N);
}